X:1
T:Title
%%score ( 1 2 ) ( 3 4 )
L:1/8
Q:1/4=100
M:4/4
K:A
V:1 treble nm="Grand Piano, Soprano"
V:2 treble 
V:3 bass nm="Choir Pad, The City of Love"
V:4 bass 
V:1
 [A,C][B,D][CE][CE] [EA][EB] [Ec]2 | [Ec][EB] [FA]2 [DF]2 [CE]2 | %2
w: By~Ransom~&~Franklin~Grabeel,~1912 * * * * * *||
 [A,C][B,D][CE][CE] [EA][EB] [Ec]2 | [EB][^DA] [EB]6 | [A,C][B,D][CE][CE] [EA][EB] [Ec]2 | %5
w: |||
 [Ec][EB] [FA]2 [FA]2 [FB][FA] | [EG][DF][CE][CE] [EA][FB][Ec][Ec] | [DB]2 [CA]6 | %8
w: |||
 [B,G][CA] [DB]4- [DB][DG] | z2 A6 | [CA][DB] [Ec]4- [Ec][DB] | z2 B6 | %12
w: ||||
 [Ec][Ed][Ae][Ae] [Ae][Ad] [Ac]2 | [Ec][EB][FA][FB] [FA][DF] [FA]2 | %14
w: ||
 [EG][DF][CE][CE] [EA][FB] [Ec]2 | [DB]2 [CA]6- | [CA]2 z2 z4 |] %17
w: |||
V:2
 x8 | x8 | x8 | x8 | x8 | x8 | x8 | x8 | x8 | [DF][DE] C2 DD C2 | x8 | [CA][Ec] E2 ^DD E2 | x8 | %13
 x8 | x8 | x8 | x8 |] %17
V:3
 [A,,E,][A,,E,][A,,A,][A,,A,] [A,,A,][E,G,] A,2 | [A,,A,][C,A,] [D,A,]2 [D,A,]2 [A,,A,]2 | %2
 [A,,E,][A,,E,][A,,A,][A,,A,] [C,A,][E,G,] A,2 | [G,B,][F,B,] G,4- G,-[D,G,] | %4
 [C,A,][B,,G,][A,,A,][A,,A,] [C,A,][E,G,] A,2 | [A,,A,][C,A,] [D,A,]2 [D,A,]2 [D,A,][D,A,] | %6
 [D,A,][D,A,][A,,A,][A,,A,] [C,A,][D,A,][E,A,][E,A,] | [E,G,]2 [A,,A,]6 | %8
 z4 [E,G,][E,G,][E,G,][E,B,] | [E,B,][E,B,] [A,,A,]2 [D,F,][D,F,] [A,,E,]2 | z4 A,A,A,A, | %11
 A,A, [E,G,]2 [B,,A,][B,,A,] [E,G,]2 | A,[A,B,][A,C][A,C] [A,C][A,B,] A,2 | %13
 [A,,A,][C,A,][D,A,][D,A,] [D,A,][D,A,] [D,A,]2 | [D,A,][D,A,][A,,A,][A,,A,] [C,A,][D,A,] [E,A,]2 | %15
 [E,G,]2 [A,,A,]6- | [A,,A,]2 z2 z4 |] %17
V:4
 x8 | x8 | x8 | z2 E,6 | x8 | x8 | x8 | x8 | x8 | x8 | x8 | x8 | x8 | x8 | x8 | x8 | x8 |] %17

